packages/bezier-icons/icons/arrow-left-circle-filled.svg

<svg width="24" height="24" viewBox="0 0 24 24" fill="none" xmlns="http://www.w3.org/2000/svg">
<path fill-rule="evenodd" clip-rule="evenodd" d="M2 12C2 6.478 6.477 2 12 2C17.523 2 22 6.478 22 12C22 17.523 17.523 22 12 22C6.477 22 2 17.523 2 12ZM6.29289 11.2929L11.2929 6.29291L12.7071 7.70712L9.41423 11H18V13H9.4142L12.7071 16.2929L11.2929 17.7071L6.29289 12.7071C5.90237 12.3166 5.90237 11.6834 6.29289 11.2929Z" fill="#313234"/>
</svg>

<svg xmlns="http://www.w3.org/2000/svg" width="24" height="24" fill="none" viewBox="0 0 24 24"><path fill="#313234" fill-rule="evenodd" d="M2 12C2 6.478 6.477 2 12 2s10 4.478 10 10-4.477 10-10 10S2 17.523 2 12m4.293-.707 5-5 1.414 1.414L9.414 11H18v2H9.414l3.293 3.293-1.414 1.414-5-5a1 1 0 0 1 0-1.414" clip-rule="evenodd"/></svg>
